X: 42722
T: Whistling Postman, The
R: reel
M: 4/4
K: Dmajor
f2df edBc|dBAF EGFE|DF~F2 AF~F2|ABdf g2ag|
f2df edBc|dBAF EGFE|DF F2 ABdf|edBc d3e:|
fddc dfaf|bfaf gfef|dfaf ~g3b|afdf e2de|
fddc dfaf|bfaf gfef|dBAF ABdf|edBc d3e|
fddc dfaf|bfaf gfef|dfaf ~g3b|afdf e2fg|
~a3b afdf|gefd edBc|dB~B2 ABdf|edBc d3e||

